!!!SOCIAL_FUNCTION:	songs of social dance
!!!PDT:	1939
!!!OTL: No_70_Song_of_Defiance_(b).krn
!!!LANG: Non-Tone
!!!LING_GROUP: Wakashan
!!!REG: Pacific Northwest
**kern
*staff1
=1-
*clefF4
*k[f#c#]
*M2/4
[2B\
=2
8.B\L]
16c#\Jk
8..B\L
32F#\Jkk
=3||
*M2/4
8F#\L
8F#\J
8F#\L
8F#\J
=4||
*M3/4
[2E\
8E\L]
8F#\J
=5
4E\
8E\L
8E\J
8r
8B\
=6||
*M2/4
4B\
8A\L
8A\J
=7
8B\L
8B\J
4A\
=8||
*M3/4
8E\L
8E\J
8D\L
8D\J
4E\
=9
8D\L
8D\J
8E\L
8E\J
8D\
16r
16B\
=10||
*M2/4
8B\L
[8A\J
8A\L]
8B\J
=11||
*M3/4
2.A\
=12
4A\
8E\L
8E\J
8r
8A\
=13
8A\L
8F#\J
8F#\L
8F#\J
8A\L
8A\J
==
*-
